liquidity/lib/Pools/auto-compound.svg

<svg width="40" height="40" viewBox="0 0 40 40" fill="none" xmlns="http://www.w3.org/2000/svg">
<rect width="40" height="40" rx="20" fill="url(#paint0_linear_24274_2972)"/>
<path fill-rule="evenodd" clip-rule="evenodd" d="M25.3565 15.2523L28.742 15.2808L28.0152 14.2117C26.932 12.5945 25.3824 11.3457 23.5718 10.6331C21.7612 9.92056 19.7766 9.77856 17.8832 10.2264C15.9897 10.6742 14.2786 11.6901 12.9773 13.1374C12.0992 14.1139 11.4357 15.2556 11.0206 16.4881L9.35765 15.3544C11.0401 11.0515 15.2207 7.99984 20.0771 7.99984C21.7435 7.998 23.3916 8.36047 24.9048 9.06234C25.7705 9.46389 26.934 10.3889 27.7713 11.1069C28.4966 11.7291 29.1125 12.4626 29.6506 13.2502L30.1167 13.9325V10.3973H32V17.1684H25.3565V15.2523Z" fill="white"/>
<path fill-rule="evenodd" clip-rule="evenodd" d="M14.6435 24.7474L11.258 24.7189L11.9848 25.788C13.068 27.4052 14.6177 28.654 16.4282 29.3665C18.2388 30.0791 20.2234 30.2211 22.1169 29.7733C24.0103 29.3255 25.7214 28.3095 27.0227 26.8623C27.9008 25.8857 28.5643 24.7441 28.9794 23.5116L30.6424 24.6452C28.9599 28.9482 24.7793 31.9998 19.9229 31.9998C18.2565 32.0017 16.6085 31.6392 15.0952 30.9373C14.2295 30.5358 13.066 29.6108 12.2287 28.8927C11.5034 28.2706 10.8875 27.5371 10.3494 26.7494L9.88328 26.0672V29.6024H8V22.8313H14.6435V24.7474Z" fill="white"/>
<path fill-rule="evenodd" clip-rule="evenodd" d="M18.8694 17.9099C18.8767 17.5651 18.9758 17.4246 19.0425 17.3577C19.1306 17.2694 19.3008 17.1746 19.6159 17.1248C20.2724 17.0211 21.1605 17.1721 21.8933 17.3638L22.7935 17.5993L23.2677 15.8112L22.3675 15.5757C21.5945 15.3735 20.3864 15.1307 19.3233 15.2987C18.7785 15.3848 18.1829 15.5923 17.7202 16.056C17.2388 16.5385 17.0072 17.1912 17.0072 17.9508V17.9858L17.0099 18.0207C17.077 18.8996 17.6035 19.4837 18.1495 19.8678C18.6501 20.2199 19.2707 20.4764 19.7719 20.6836C19.7909 20.6914 19.8096 20.6991 19.8282 20.7068C20.3944 20.9411 20.8146 21.1215 21.1058 21.3333C21.3622 21.5198 21.3878 21.6326 21.3878 21.7322C21.3878 22.1185 21.2733 22.2719 21.1836 22.3525C21.0636 22.4602 20.8383 22.5653 20.4539 22.6129C19.6709 22.7097 18.6538 22.5193 17.9051 22.3202L17.0059 22.081L16.5243 23.8672L17.4235 24.1063C18.2148 24.3168 19.5249 24.5912 20.684 24.4478C21.2707 24.3752 21.9203 24.1839 22.4323 23.724C22.9747 23.2368 23.2495 22.5513 23.2495 21.7322C23.2495 20.8392 22.7468 20.2351 22.2059 19.8416C21.7135 19.4834 21.0887 19.225 20.5858 19.0171C20.5718 19.0113 20.5579 19.0056 20.544 18.9998C19.9786 18.7659 19.5418 18.5813 19.2255 18.3588C18.9572 18.1701 18.8863 18.0322 18.8694 17.9099Z" fill="white"/>
<path fill-rule="evenodd" clip-rule="evenodd" d="M19.9915 23.101C20.5056 23.101 20.9223 23.5149 20.9223 24.0255V26.3369H19.0606V24.0255C19.0606 23.5149 19.4774 23.101 19.9915 23.101Z" fill="white"/>
<path fill-rule="evenodd" clip-rule="evenodd" d="M20.9223 13.3931V15.7045C20.9223 16.2151 20.5056 16.629 19.9915 16.629C19.4774 16.629 19.0606 16.2151 19.0606 15.7045V13.3931H20.9223Z" fill="white"/>
<defs>
<linearGradient id="paint0_linear_24274_2972" x1="1.09091" y1="40" x2="47.7325" y2="26.2724" gradientUnits="userSpaceOnUse">
<stop stop-color="#31D8A4"/>
<stop offset="1" stop-color="#00B0D6"/>
</linearGradient>
</defs>
</svg>

<svg width="40" height="40" fill="none" viewBox="0 0 40 40" xmlns="http://www.w3.org/2000/svg">
  <rect width="40" height="40" fill="url(#a)" rx="20"/>
  <path fill="#fff" fill-rule="evenodd" d="m25.357 15.252 3.385.029-.727-1.07a9.57 9.57 0 0 0-4.443-3.578 9.54 9.54 0 0 0-10.595 2.504 9.6 9.6 0 0 0-1.956 3.351l-1.663-1.134C11.04 11.052 15.22 8 20.078 8c1.666-.002 3.314.36 4.827 1.062.865.402 2.029 1.327 2.866 2.045.726.622 1.342 1.356 1.88 2.143l.466.682v-3.535H32v6.771h-6.643zm-10.713 9.495-3.386-.028.727 1.069a9.57 9.57 0 0 0 4.443 3.578 9.54 9.54 0 0 0 10.595-2.504 9.6 9.6 0 0 0 1.956-3.35l1.663 1.133C28.96 28.948 24.78 32 19.922 32a11.4 11.4 0 0 1-4.827-1.063c-.866-.401-2.029-1.326-2.866-2.044-.726-.622-1.341-1.356-1.88-2.144l-.466-.682v3.535H8v-6.77h6.643z" clip-rule="evenodd"/>
  <path fill="#fff" fill-rule="evenodd" d="M18.87 17.91c.007-.345.106-.485.172-.552.089-.089.259-.183.574-.233.656-.104 1.544.047 2.277.239l.9.235.475-1.788-.9-.235c-.773-.203-1.982-.445-3.045-.277-.544.086-1.14.293-1.603.757-.481.482-.713 1.135-.713 1.895v.035l.003.035c.067.879.593 1.463 1.14 1.847.5.352 1.12.608 1.622.816l.056.023c.566.234.987.415 1.278.626.256.187.282.3.282.4 0 .386-.115.539-.204.62-.12.107-.346.212-.73.26-.783.097-1.8-.094-2.549-.293l-.9-.239-.48 1.786.899.24c.79.21 2.1.484 3.26.34.587-.072 1.236-.263 1.748-.723.543-.487.818-1.173.818-1.992 0-.893-.503-1.497-1.044-1.89-.492-.359-1.117-.617-1.62-.825L20.544 19c-.565-.234-1.002-.419-1.319-.641-.268-.189-.339-.327-.356-.45" clip-rule="evenodd"/>
  <path fill="#fff" fill-rule="evenodd" d="M19.992 23.101c.514 0 .93.414.93.925v2.31h-1.861v-2.31c0-.511.416-.925.93-.925m.931-9.708v2.311a.927.927 0 0 1-.93.925.93.93 0 0 1-.931-.925v-2.31z" clip-rule="evenodd"/>
  <defs>
    <linearGradient id="a" x1="1.091" x2="47.733" y1="40" y2="26.272" gradientUnits="userSpaceOnUse">
      <stop stop-color="#31D8A4"/>
      <stop offset="1" stop-color="#00B0D6"/>
    </linearGradient>
  </defs>
</svg>
